kora-light-panel/panel/16/indicator-cpufreq.svg

<svg xmlns="http://www.w3.org/2000/svg" width="16" height="16" version="1.1">
 <defs>
  <style id="current-color-scheme" type="text/css">
   .ColorScheme-Text { color:#444444; } .ColorScheme-Highlight { color:#4285f4; }
  </style>
 </defs>
 <path style="fill:currentColor" class="ColorScheme-Text" d="M 3.3482,0 A 0.25823,0.25823 0 0 0 3.094,0.2623 V 1.8297 C 2.4447,1.9384 1.938,2.4451 1.8292,3.0944 H 0.2618 A 0.25823,0.25823 0 1 0 0.2618,3.6108 H 1.8029 V 6.1928 H 0.2618 A 0.25823,0.25823 0 1 0 0.2618,6.7092 H 1.8029 V 9.291 H 0.2618 A 0.2585,0.2585 0 1 0 0.2618,9.808 H 1.8029 V 12.39 H 0.2618 A 0.25823,0.25823 0 1 0 0.2618,12.906 H 1.8292 C 1.938,13.555 2.4447,14.062 3.094,14.171 V 15.738 A 0.25823,0.25823 0 1 0 3.6104,15.738 V 14.197 H 6.1924 V 15.738 A 0.25823,0.25823 0 1 0 6.7088,15.738 V 14.197 H 9.291 V 15.738 A 0.25823,0.25823 0 1 0 9.807,15.738 V 14.197 H 12.389 V 15.738 A 0.2585,0.2585 0 1 0 12.906,15.738 V 14.171 C 13.555,14.062 14.062,13.555 14.17,12.906 H 15.738 A 0.25823,0.25823 0 0 0 16,12.644 0.25823,0.25823 0 0 0 15.738,12.39 H 14.197 V 9.808 H 15.738 A 0.25823,0.25823 0 0 0 16,9.545 0.25823,0.25823 0 0 0 15.738,9.291 H 14.197 V 6.7092 H 15.738 A 0.25823,0.25823 0 0 0 16.001,6.4472 0.25823,0.25823 0 0 0 15.739,6.193 H 14.198 V 3.611 H 15.739 A 0.25823,0.25823 0 0 0 16.001,3.3488 0.25823,0.25823 0 0 0 15.739,3.0946 H 14.171 C 14.062,2.4453 13.555,1.9386 12.906,1.8298 V 0.2624 A 0.25823,0.25823 0 0 0 12.643,2e-4 0.25823,0.25823 0 0 0 12.389,0.2625 V 1.8036 H 9.807 V 0.2625 A 0.25823,0.25823 0 0 0 9.545,2e-4 0.25823,0.25823 0 0 0 9.291,0.2625 V 1.8036 H 6.7094 V 0.2625 A 0.25823,0.25823 0 0 0 6.447,2e-4 0.25823,0.25823 0 0 0 6.1928,0.2625 V 1.8036 H 3.6108 V 0.2625 A 0.25823,0.25823 0 0 0 3.3486,2e-4 Z"/>
</svg>

<svg xmlns="http://www.w3.org/2000/svg" width="16" height="16" viewBox="0 0 16 16">
 <defs>
  <style id="current-color-scheme" type="text/css">
   .ColorScheme-Text { color:#444444; } .ColorScheme-Highlight { color:#4285f4; } .ColorScheme-NeutralText { color:#ff9800; } .ColorScheme-PositiveText { color:#4caf50; } .ColorScheme-NegativeText { color:#f44336; }
  </style>
 </defs>
 <path style="opacity:0.3;fill:currentColor" class="ColorScheme-Text" d="m3.348 0c-.14.002-.254.118-.254.258v1.572c-.649.108-1.156.615-1.265 1.264h-1.567-.004c-.142 0-.258.117-.258.259 0 .141.116.258.258.258h1.545v2.582h-1.541-.004c-.142 0-.258.116-.258.258s.116.258.258.258h1.545v2.582h-1.541c-.142 0-.259.117-.259.258 0 .142.117.259.259.259h1.541v2.582h-1.541-.011c-.142 0-.258.116-.258.258s.116.258.258.258h1.578c.109.649.616 1.156 1.265 1.265v1.571c0 .142.117.258.258.258.142 0 .258-.116.258-.258v-.004-1.541h2.582v1.545c0 .142.117.258.259.258.141 0 .258-.116.258-.258v-.004-1.541h2.582v1.552c0 .142.116.258.258.258s.258-.116.258-.258v-.011-1.541h2.582v1.541c0 .142.117.258.259.258.141 0 .258-.116.258-.258v-1.567c.649-.109 1.156-.616 1.264-1.265h1.572c.141 0 .258-.117.258-.258v-.004c-.002-.141-.121-.256-.262-.254h-1.541v-2.582h1.545c.141 0 .258-.117.258-.258v-.005c-.002-.141-.121-.256-.262-.254h-1.541v-2.582h1.546c.141 0 .258-.116.258-.258v-.004c-.002-.141-.12-.256-.262-.254h-1.541v-2.582h1.545c.141 0 .258-.117.258-.258v-.004c-.002-.142-.12-.256-.262-.254h-1.568c-.109-.65-.616-1.156-1.265-1.265v-1.568-.004c0-.141-.117-.258-.258-.258h-.005c-.142.003-.256.121-.254.262v1.542h-2.582v-1.542-.004c0-.141-.117-.258-.258-.258h-.004c-.142.003-.256.121-.254.262v1.542h-2.582v-1.542-.004c0-.141-.116-.258-.258-.258h-.004c-.14.002-.254.118-.254.258v1.546h-2.582v-1.542-.004c0-.141-.117-.258-.258-.258h-.004-.001z"/>
</svg>
